icons/compass-17.svg

<svg width="16" height="17" viewBox="0 0 16 17" fill="none" xmlns="http://www.w3.org/2000/svg">
<path fill-rule="evenodd" clip-rule="evenodd" d="M10.8302 6.02612C10.8956 5.83012 10.8446 5.61403 10.6985 5.46794C10.5524 5.32185 10.3363 5.27084 10.1403 5.33617L6.67119 6.49254C6.50832 6.54683 6.38051 6.67464 6.32622 6.83751L5.16985 10.3066C5.10452 10.5026 5.15553 10.7187 5.30162 10.8648C5.44771 11.0109 5.6638 11.0619 5.8598 10.9966L9.32889 9.84019C9.49177 9.7859 9.61958 9.65809 9.67387 9.49521L10.8302 6.02612ZM6.54975 9.61665L7.2749 7.44122L9.45033 6.71608L8.72519 8.89151L6.54975 9.61665Z" fill="#272431"/>
<path fill-rule="evenodd" clip-rule="evenodd" d="M8 2.16638C4.68629 2.16638 2 4.85267 2 8.16638C2 11.4801 4.68629 14.1664 8 14.1664C11.3137 14.1664 14 11.4801 14 8.16638C14 4.85267 11.3137 2.16638 8 2.16638ZM3.09091 8.16638C3.09091 5.45517 5.28878 3.25729 8 3.25729C10.7112 3.25729 12.9091 5.45517 12.9091 8.16638C12.9091 10.8776 10.7112 13.0755 8 13.0755C5.28878 13.0755 3.09091 10.8776 3.09091 8.16638Z" fill="#272431"/>
</svg>

<svg xmlns="http://www.w3.org/2000/svg" width="16" height="17" viewBox="0 0 16 17"><path fill-rule="evenodd" d="M10.83 6.026a.545.545 0 00-.69-.69L6.671 6.493a.545.545 0 00-.345.345L5.17 10.307a.545.545 0 00.69.69L9.329 9.84a.545.545 0 00.345-.345l1.156-3.469zm-4.28 3.59l.725-2.175 2.175-.725-.725 2.176-2.175.725z"/><path fill-rule="evenodd" d="M8 2.166a6 6 0 100 12 6 6 0 000-12zm-4.91 6a4.91 4.91 0 119.82 0 4.91 4.91 0 01-9.82 0z"/></svg>
